rospo-icon-theme-classic-common/22x22/places/folder-yellow-git.svg

<svg height="22" width="22" xmlns="http://www.w3.org/2000/svg"><rect height="12" opacity=".2" rx="1" width="20" x="1" y="8.5"/><path d="m1 16c0 .554.446 1 1 1h18c .554 0 1-.446 1-1v-11c0-.554-.446-1-1-1h-10v-1c0-.554-.446-1-1-1h-7c-.554 0-1 .446-1 1" fill="#b58f1b"/><rect height="12" opacity=".2" rx="1" width="20" x="1" y="7.5"/><rect fill="#e4e4e4" height="8" rx="1" width="16" x="3" y="6"/><rect fill="#e2b322" height="12" rx="1" width="20" x="1" y="8"/><path d="m2 2c-.554 0-1 .446-1 1v .5c0-.554.446-1 1-1h7c .554 0 1 .446 1 1v-.5c0-.554-.446-1-1-1zm8 2v .5h10c .554 0 1 .446 1 1v-.5c0-.554-.446-1-1-1z" fill="#fff" opacity=".1"/><path d="m7.7165 9.361-.3555.3554.9551.9556a1.5 1.5 0 0 0 -.2774.867 1.5 1.5 0 0 0 1.25 1.479v2.043a1.5 1.5 0 0 0 -1.25 1.478 1.5 1.5 0 0 0 1.5 1.5 1.5 1.5 0 0 0 1.5003-1.5 1.5 1.5 0 0 0 -1.2503-1.478v-2.043a1.5 1.5 0 0 0  .6173-.256l.91.91a1.5 1.5 0 0 0 -.277.868 1.5 1.5 0 0 0 1.5 1.5 1.5 1.5 0 0 0 1.5-1.5 1.5 1.5 0 0 0 -1.5-1.5 1.5 1.5 0 0 0 -.867.277l-.911-.91a1.5 1.5 0 0 0  .278-.867 1.5 1.5 0 0 0 -1.5004-1.5 1.5 1.5 0 0 0 -.8672.277l-.955-.9549z" fill="#4f3e0c"/></svg>

<svg xmlns="http://www.w3.org/2000/svg" width="22" height="22" version="1">
 <rect style="opacity:0.2" width="20" height="12" x="1" y="8.5" rx="1" ry="1"/>
 <path style="fill:#b58f1b" d="M 1,16 C 1,16.554 1.446,17 2,17 H 20 C 20.554,17 21,16.554 21,16 V 5 C 21,4.446 20.554,4 20,4 H 10 V 3 C 10,2.446 9.554,2 9,2 H 2 C 1.446,2 1,2.446 1,3"/>
 <rect style="opacity:0.2" width="20" height="12" x="1" y="7.5" rx="1" ry="1"/>
 <rect style="fill:#dcdcdc" width="16" height="8" x="3" y="6" rx="1" ry="1"/>
 <rect style="fill:#e2b322" width="20" height="12" x="1" y="8" rx="1" ry="1"/>
 <path style="opacity:0.1;fill:#ffffff" d="M 2,2 C 1.446,2 1,2.446 1,3 V 3.5 C 1,2.946 1.446,2.5 2,2.5 H 9 C 9.554,2.5 10,2.946 10,3.5 V 3 C 10,2.446 9.554,2 9,2 Z M 10,4 V 4.5 H 20 C 20.554,4.5 21,4.946 21,5.5 V 5 C 21,4.446 20.554,4 20,4 Z"/>
 <path style="fill:#4f3e0c" d="M 7.7165,9.361 7.361,9.7164 8.3161,10.672 A 1.5,1.5 0 0 0 8.0387,11.539 1.5,1.5 0 0 0 9.2887,13.018 V 15.061 A 1.5,1.5 0 0 0 8.0387,16.539 1.5,1.5 0 0 0 9.5387,18.039 1.5,1.5 0 0 0 11.039,16.539 1.5,1.5 0 0 0 9.7887,15.061 V 13.018 A 1.5,1.5 0 0 0 10.406,12.762 L 11.316,13.672 A 1.5,1.5 0 0 0 11.039,14.54 1.5,1.5 0 0 0 12.539,16.04 1.5,1.5 0 0 0 14.039,14.54 1.5,1.5 0 0 0 12.539,13.04 1.5,1.5 0 0 0 11.672,13.317 L 10.761,12.407 A 1.5,1.5 0 0 0 11.039,11.54 1.5,1.5 0 0 0 9.5386,10.04 1.5,1.5 0 0 0 8.6714,10.317 L 7.7164,9.3621 Z"/>
</svg>
